; generated by PrusaSlicer 2.6.1+win64 on 2023-12-19 at 16:42:56 UTC


;
;

;
;

;
;
; 

; external perimeters extrusion width = 0.45mm
; perimeters extrusion width = 0.45mm
; infill extrusion width = 0.45mm
; solid infill extrusion width = 0.45mm
; top infill extrusion width = 0.42mm
; first layer extrusion width = 0.50mm

M73 P0 R36
M201 X4000 Y4000 Z400 E5000 ; sets maximum accelerations, mm/sec^2
M203 X400 Y400 Z12 E80 ; sets maximum feedrates, mm / sec
M204 P4000 R1250 T4000 ; sets acceleration (P, T) and retract acceleration (R), mm/sec^2
M205 X8.00 Y8.00 Z2.00 E10.00 ; sets the jerk limits, mm/sec
M205 S0 T0 ; sets the minimum extruding and travel feed rate, mm/sec
;TYPE:Custom
M862.3 P "MINI" ; printer model check
M862.1 P0.4 ; nozzle diameter check
M862.5 P2 ; g-code level check
M862.6 P"Input shaper" ; FW feature check
G90 ; use absolute coordinates
M83 ; extruder relative mode
M104 S170 ; set extruder temp for bed leveling
M140 S85 ; set bed temp
M109 R170 ; wait for bed leveling temp
M190 S85 ; wait for bed temp
M569 S1 X Y ; set stealthchop for X Y
M204 T1250 ; set travel acceleration
G28 ; home all without mesh bed level
G29 ; mesh bed leveling 
M104 S240 ; set extruder temp
G92 E0
G1 Y-2 X179 F2400
G1 Z3 F720
M109 S240 ; wait for extruder temp

; intro line
G1 X170 F1000
G1 Z0.2 F720
G1 X110 E8 F900
G1 X40 E10 F700
G92 E0

M569 S0 X Y ; set spreadcycle for X Y
M204 T4000 ; restore travel acceleration
M572 W0.06 ; set smooth time
M221 S95 ; set flow
G21 ; set units to millimeters
G90 ; use absolute coordinates
M83 ; use relative distances for extrusion
M572 S0.4
M107
;LAYER_CHANGE
;Z:0.2
;HEIGHT:0.2
;BEFORE_LAYER_CHANGE
G92 E0.0
;0.2
M201 X4000 Y4000
M74 W0

G1 E-2.5 F2700
G1 Z.2 F720
;AFTER_LAYER_CHANGE
;0.2
; printing object acopla 20x20 soporte realsense.STL id:0 copy 0
G1 Z.4
M204 T4000
G1 X93.928 Y82.299 F24000
G1 Z.2 F720
G1 E2.5 F1500
M204 P500
;TYPE:Perimeter
;WIDTH:0.499999
G1 F2400
G1 X93.945 Y82.358 E.00233
G1 X94.234 Y82.954 E.02517
G1 X94.623 Y83.492 E.02523
G1 X95.1 Y83.953 E.02521
G1 X95.649 Y84.325 E.0252
G1 X96.255 Y84.596 E.02523
G1 X96.971 Y84.764 E.02795
G1 X97.485 Y84.807 E.0196
G1 X105.462 Y84.807 E.30318
G1 X106.359 Y84.882 E.03421
G1 X107.195 Y85.094 E.03278
G1 X107.982 Y85.442 E.0327
G1 X108.7 Y85.914 E.03266
G1 X109.331 Y86.498 E.03268
G1 X109.855 Y87.177 E.0326
G1 X110.27 Y87.956 E.03355
G1 X110.527 Y88.728 E.03092
G1 X110.6 Y89.132 E.0156
G1 X110.675 Y89.649 E.01985
G1 X110.672 Y90.407 E.02881
G1 X110.523 Y91.305 E.0346
G1 X110.24 Y92.114 E.03257
G1 X109.827 Y92.867 E.03264
G1 X109.295 Y93.541 E.03263
G1 X108.658 Y94.119 E.03269
G1 X107.936 Y94.583 E.03262
G1 X107.146 Y94.922 E.03267
G1 X106.309 Y95.127 E.03275
G1 X105.521 Y95.193 E.03005
G1 X97.431 Y95.195 E.30747
G1 X96.78 Y95.263 E.02488
G1 X96.142 Y95.444 E.0252
G1 X95.546 Y95.734 E.02519
G1 X95.008 Y96.123 E.02523
G1 X94.547 Y96.599 E.02518
G1 X94.175 Y97.149 E.02524
G1 X93.904 Y97.754 E.0252
G1 X93.747 Y98.398 E.02519
;WIDTH:0.489394
G1 X93.711 Y98.99 E.02202
;WIDTH:0.466055
G1 X93.71 Y99.586 E.02097
;WIDTH:0.489831
G1 X93.698 Y100.096 E.01896
;WIDTH:0.499999
G1 X93.693 Y101.907 E.06883
G1 X93.639 Y102.117 E.00824
G1 X93.46 Y102.193 E.00739
G1 X91.719 Y102.193 E.06617
G1 X91.01 Y102.211 E.02696
;WIDTH:0.464381
G1 X83.379 Y102.211 E.26743
;WIDTH:0.499999
G1 X82.716 Y102.193 E.02521
G1 X80.284 Y102.193 E.09243
G1 X79.621 Y102.211 E.02521
;WIDTH:0.464381
G1 X71.99 Y102.211 E.26743
;WIDTH:0.466055
G1 X71.914 Y102.21 E.00267
;WIDTH:0.491063
G1 X71.404 Y102.197 E.01901
;WIDTH:0.499999
G1 X69.593 Y102.193 E.06883
G1 X69.383 Y102.139 E.00824
G1 X69.307 Y101.96 E.00739
G1 X69.307 Y100.218 E.06621
G1 X69.289 Y99.51 E.02692
;WIDTH:0.46438
G1 X69.289 Y91.879 E.26742
;WIDTH:0.499999
G1 X69.307 Y91.216 E.02521
G1 X69.307 Y88.784 E.09243
G1 X69.289 Y88.121 E.02521
;WIDTH:0.46438
G1 X69.289 Y80.49 E.26742
;WIDTH:0.466055
G1 X69.29 Y80.414 E.00267
;WIDTH:0.491063
G1 X69.303 Y79.904 E.01901
;WIDTH:0.499999
G1 X69.307 Y78.093 E.06883
G1 X69.361 Y77.883 E.00824
G1 X69.54 Y77.807 E.00739
G1 X71.282 Y77.807 E.06621
G1 X71.99 Y77.789 E.02692
;WIDTH:0.464381
G1 X79.621 Y77.789 E.26743
;WIDTH:0.499999
G1 X80.284 Y77.807 E.02521
G1 X82.716 Y77.807 E.09243
G1 X83.379 Y77.789 E.02521
;WIDTH:0.464381
G1 X91.01 Y77.789 E.26743
;WIDTH:0.466055
G1 X91.086 Y77.79 E.00267
;WIDTH:0.491064
G1 X91.596 Y77.803 E.01901
;WIDTH:0.499999
G1 X93.438 Y77.807 E.07001
G1 X93.628 Y77.871 E.00762
G1 X93.693 Y78.062 E.00767
G1 X93.693 Y79.782 E.06537
G1 X93.711 Y80.49 E.02692
;WIDTH:0.466055
G1 X93.712 Y81.068 E.02034
;WIDTH:0.495619
G1 X93.765 Y81.719 E.02459
;WIDTH:0.499999
G1 X93.912 Y82.241 E.02061
M204 P2000
G1 X94.335 Y82.078 F24000
M204 P500
;TYPE:External perimeter
G1 F2400
G1 X94.359 Y82.164 E.00339
G1 X94.609 Y82.692 E.0222
G1 X94.947 Y83.169 E.02222
G1 X95.362 Y83.579 E.02217
G1 X95.842 Y83.911 E.02218
G1 X96.373 Y84.155 E.02221
G1 X96.938 Y84.303 E.0222
G1 X97.488 Y84.35 E.02098
G1 X105.481 Y84.35 E.30378
G1 X106.435 Y84.429 E.03638
G1 X107.344 Y84.661 E.03566
G1 X108.202 Y85.039 E.03563
G1 X108.983 Y85.553 E.03553
G1 X109.669 Y86.188 E.03553
G1 X110.241 Y86.928 E.03555
G1 X110.692 Y87.775 E.03647
G1 X110.961 Y88.583 E.03237
G1 X111.066 Y89.153 E.02203
G1 X111.132 Y89.651 E.01909
G1 X111.129 Y90.445 E.03018
G1 X110.968 Y91.419 E.03752
G1 X110.659 Y92.3 E.03548
G1 X110.209 Y93.12 E.03555
G1 X109.63 Y93.854 E.03553
G1 X108.938 Y94.483 E.03554
G1 X108.151 Y94.988 E.03554
G1 X107.292 Y95.357 E.03553
G1 X106.382 Y95.58 E.03561
G1 X105.54 Y95.65 E.03211
G1 X97.47 Y95.651 E.30671
G1 X96.899 Y95.704 E.02179
G1 X96.336 Y95.859 E.02219
G1 X95.808 Y96.109 E.0222
G1 X95.331 Y96.446 E.0222
G1 X94.921 Y96.862 E.0222
G1 X94.589 Y97.342 E.02218
G1 X94.345 Y97.873 E.02221
G1 X94.197 Y98.438 E.0222
G1 X94.15 Y98.99 E.02106
G1 X94.15 Y101.907 E.11086
G1 X94.107 Y102.221 E.01205
G1 X93.995 Y102.415 E.00851
G1 X93.823 Y102.559 E.00853
G1 X93.48 Y102.65 E.01349
G1 X69.593 Y102.65 E.90786
G1 X69.279 Y102.607 E.01205
G1 X69.085 Y102.495 E.00851
G1 X68.941 Y102.323 E.00853
G1 X68.85 Y101.98 E.01349
G1 X68.85 Y78.093 E.90786
G1 X68.894 Y77.779 E.01205
G1 X69.005 Y77.585 E.00849
G1 X69.177 Y77.441 E.00853
G1 X69.52 Y77.35 E.01349
G1 X93.066 Y77.35 E.8949
G1 X93.599 Y77.37 E.02027
M73 P1 R36
G1 X93.88 Y77.477 E.01143
G1 X94.069 Y77.71 E.0114
G1 X94.15 Y78.026 E.0124
G1 X94.151 Y81.03 E.11417
G1 X94.204 Y81.601 E.02179
G1 X94.319 Y82.021 E.01655
M204 P2000
G1 X94.271 Y82.14 F24000
G1 E-2.5 F2700
G1 Z.4 F720
G1 X106.178 Y86.158 F24000
G1 Z.2 F720
G1 E2.5 F1500
M204 P500
;TYPE:Perimeter
G1 F2400
G1 X106.78 Y86.31 E.0236
G1 X107.401 Y86.588 E.02586
G1 X107.934 Y86.948 E.02445
G1 X108.398 Y87.389 E.02433
G1 X108.784 Y87.898 E.02428
G1 X109.091 Y88.484 E.02514
G1 X109.292 Y89.098 E.02455
G1 X109.385 Y89.704 E.0233
G1 X109.405 Y90.06 E.01355
G1 X109.356 Y90.619 E.02133
G1 X109.19 Y91.28 E.0259
G1 X108.912 Y91.901 E.02586
G1 X108.53 Y92.465 E.02589
G1 X108.056 Y92.953 E.02586
G1 X107.504 Y93.352 E.02589
G1 X106.892 Y93.649 E.02585
G1 X106.237 Y93.836 E.02589
G1 X105.56 Y93.905 E.02586
G1 X104.881 Y93.856 E.02587
G1 X104.22 Y93.69 E.0259
G1 X103.599 Y93.412 E.02586
G1 X103.496 Y93.352 E.00453
G1 X103.036 Y93.03 E.02134
G1 X102.547 Y92.556 E.02588
G1 X102.148 Y92.004 E.02589
G1 X101.851 Y91.392 E.02585
G1 X101.664 Y90.737 E.02589
G1 X101.595 Y90.06 E.02586
G1 X101.643 Y89.392 E.02545
G1 X101.81 Y88.72 E.02632
G1 X102.088 Y88.099 E.02586
G1 X102.47 Y87.535 E.02589
G1 X102.944 Y87.047 E.02586
G1 X103.496 Y86.648 E.02589
G1 X104.108 Y86.351 E.02585
G1 X104.763 Y86.164 E.02589
G1 X105.44 Y86.095 E.02586
G1 X106.12 Y86.144 E.02591
M204 P2000
G1 X106.166 Y86.622 F24000
M204 P500
;TYPE:External perimeter
G1 F2400
G1 X106.661 Y86.751 E.01944
G1 X107.208 Y87.002 E.02287
G1 X107.671 Y87.323 E.02141
G1 X108.075 Y87.712 E.02132
G1 X108.409 Y88.16 E.02124
G1 X108.677 Y88.677 E.02213
G1 X108.85 Y89.217 E.02155
G1 X108.929 Y89.744 E.02025
G1 X108.929 Y90.257 E.0195
G1 X108.894 Y90.619 E.01382
G1 X108.749 Y91.161 E.02132
G1 X108.498 Y91.708 E.02287
G1 X108.156 Y92.202 E.02284
G1 X107.733 Y92.63 E.02287
G1 X107.242 Y92.978 E.02287
G1 X106.699 Y93.235 E.02283
G1 X106.119 Y93.394 E.02286
G1 X105.52 Y93.45 E.02287
G1 X104.921 Y93.401 E.02284
G1 X104.339 Y93.249 E.02286
G1 X103.792 Y92.998 E.02287
G1 X103.298 Y92.656 E.02284
G1 X102.87 Y92.233 E.02287
G1 X102.522 Y91.742 E.02287
G1 X102.265 Y91.199 E.02283
G1 X102.106 Y90.619 E.02286
G1 X102.05 Y90.02 E.02287
G1 X102.098 Y89.432 E.02242
G1 X102.251 Y88.839 E.02328
G1 X102.502 Y88.292 E.02287
G1 X102.844 Y87.798 E.02284
G1 X103.267 Y87.37 E.02287
G1 X103.758 Y87.022 E.02287
G1 X104.301 Y86.765 E.02283
G1 X104.881 Y86.606 E.02286
G1 X105.48 Y86.55 E.02287
G1 X106.108 Y86.607 E.02397
M204 P2000
G1 X106.424 Y86.315 F24000
G1 E-2.5 F2700
G1 Z.4 F720
G1 X69.75 Y91.764 F24000
G1 Z.2 F720
G1 E2.5 F1500
M204 P500
;TYPE:Perimeter
G1 F2400
G1 X69.864 Y91.426 E.01356
G1 X70.19 Y91.219 E.01468
G1 X70.693 Y91.193 E.01914
G1 X70.693 Y88.807 E.09068
G1 X70.19 Y88.781 E.01914
G1 X69.864 Y88.574 E.01468
G1 X69.718 Y88.237 E.01396
;WIDTH:0.471037
G1 X69.711 Y88.121 E.00414
;WIDTH:0.46438
G1 X69.711 Y80.49 E.26742
;WIDTH:0.491063
G1 X69.762 Y79.985 E.01891
;WIDTH:0.499999
G1 X69.951 Y79.454 E.02142
G1 X70.07 Y79.248 E.00904
G1 X70.432 Y78.817 E.02139
G1 X70.614 Y78.663 E.00906
G1 X71.102 Y78.382 E.0214
G1 X71.325 Y78.301 E.00902
G1 X71.873 Y78.218 E.02106
;WIDTH:0.471224
G1 X71.99 Y78.211 E.00417
;WIDTH:0.464381
G1 X79.621 Y78.211 E.26743
;WIDTH:0.499999
G1 X80.074 Y78.364 E.01817
G1 X80.281 Y78.69 E.01468
G1 X80.307 Y79.193 E.01914
G1 X80.947 Y79.193 E.02432
G1 X82.693 Y79.193 E.06636
G1 X82.719 Y78.69 E.01914
G1 X82.926 Y78.364 E.01468
G1 X83.263 Y78.217 E.01397
;WIDTH:0.471038
G1 X83.379 Y78.211 E.00413
;WIDTH:0.464381
G1 X91.01 Y78.211 E.26743
;WIDTH:0.491064
G1 X91.515 Y78.262 E.01891
;WIDTH:0.499999
G1 X92.046 Y78.451 E.02142
G1 X92.252 Y78.57 E.00904
G1 X92.684 Y78.932 E.02142
G1 X92.837 Y79.114 E.00904
G1 X93.118 Y79.602 E.0214
G1 X93.2 Y79.825 E.00903
G1 X93.282 Y80.373 E.02106
;WIDTH:0.471224
G1 X93.289 Y81.01 E.02269
;WIDTH:0.489394
G1 X93.302 Y81.621 E.02269
;WIDTH:0.499999
G1 X93.307 Y88.121 E.24704
G1 X93.236 Y88.425 E.01186
G1 X93.134 Y88.577 E.00696
G1 X93.004 Y88.69 E.00655
G1 X92.621 Y88.807 E.01522
G1 X92.307 Y88.807 E.01193
G1 X92.307 Y91.193 E.09068
G1 X92.621 Y91.193 E.01193
G1 X93.004 Y91.31 E.01522
G1 X93.2 Y91.511 E.01067
G1 X93.303 Y91.805 E.01184
G1 X93.304 Y98.22 E.24381
;WIDTH:0.493617
G1 X93.29 Y98.913 E.02598
;WIDTH:0.466055
G1 X93.289 Y99.51 E.021
;WIDTH:0.489831
G1 X93.237 Y100.014 E.01883
;WIDTH:0.499999
G1 X93.049 Y100.546 E.02144
G1 X92.93 Y100.752 E.00904
G1 X92.568 Y101.183 E.02139
G1 X92.386 Y101.337 E.00906
G1 X91.898 Y101.618 E.0214
G1 X91.675 Y101.699 E.00902
G1 X91.127 Y101.782 E.02106
;WIDTH:0.471224
G1 X91.01 Y101.789 E.00417
;WIDTH:0.464381
G1 X83.379 Y101.789 E.26743
;WIDTH:0.499999
G1 X82.926 Y101.636 E.01817
G1 X82.719 Y101.31 E.01468
G1 X82.693 Y100.807 E.01914
G1 X80.307 Y100.807 E.09068
G1 X80.281 Y101.31 E.01914
G1 X80.074 Y101.636 E.01468
G1 X79.737 Y101.783 E.01397
;WIDTH:0.471038
G1 X79.621 Y101.789 E.00413
;WIDTH:0.464381
G1 X71.99 Y101.789 E.26743
;WIDTH:0.491063
G1 X71.485 Y101.738 E.01891
;WIDTH:0.499999
G1 X70.954 Y101.549 E.02142
G1 X70.748 Y101.43 E.00904
G1 X70.317 Y101.068 E.02139
G1 X70.164 Y100.886 E.00904
G1 X69.882 Y100.398 E.02142
G1 X69.801 Y100.175 E.00902
G1 X69.718 Y99.627 E.02106
;WIDTH:0.471223
G1 X69.711 Y99.51 E.00417
;WIDTH:0.46438
G1 X69.711 Y91.879 E.26742
;WIDTH:0.499999
G1 X69.73 Y91.821 E.00232
M204 P2000
G1 X70.15 Y91.879 F24000
M204 P500
;TYPE:External perimeter
G1 F2400
G1 X70.207 Y91.728 E.00613
G1 X70.379 Y91.65 E.00718
G1 X71.15 Y91.65 E.0293
G1 X71.15 Y88.35 E.12542
G1 X70.379 Y88.35 E.0293
G1 X70.207 Y88.272 E.00718
G1 X70.15 Y88.121 E.00613
G1 X70.15 Y80.49 E.29003
G1 X70.188 Y80.14 E.01338
G1 X70.38 Y79.611 E.02139
G1 X70.765 Y79.131 E.02339
G1 X71.331 Y78.778 E.02535
G1 X71.99 Y78.65 E.02551
G1 X79.621 Y78.65 E.29003
G1 X79.772 Y78.707 E.00613
G1 X79.85 Y78.879 E.00718
G1 X79.85 Y79.65 E.0293
G1 X83.15 Y79.65 E.12542
G1 X83.15 Y78.879 E.0293
G1 X83.228 Y78.707 E.00718
G1 X83.379 Y78.65 E.00613
G1 X91.01 Y78.65 E.29003
G1 X91.36 Y78.688 E.01338
G1 X91.889 Y78.88 E.02139
G1 X92.369 Y79.265 E.02339
G1 X92.722 Y79.831 E.02535
G1 X92.847 Y80.45 E.024
G1 X92.85 Y88.121 E.29155
G1 X92.792 Y88.273 E.00618
G1 X92.621 Y88.35 E.00713
G1 X91.85 Y88.35 E.0293
G1 X91.85 Y91.65 E.12542
G1 X92.621 Y91.65 E.0293
G1 X92.792 Y91.727 E.00713
G1 X92.85 Y91.879 E.00618
G1 X92.85 Y99.51 E.29003
G1 X92.812 Y99.86 E.01338
G1 X92.62 Y100.389 E.02139
G1 X92.235 Y100.869 E.02339
G1 X91.669 Y101.222 E.02535
G1 X91.01 Y101.35 E.02551
G1 X83.379 Y101.35 E.29003
G1 X83.228 Y101.293 E.00613
G1 X83.15 Y101.121 E.00718
G1 X83.15 Y100.35 E.0293
G1 X79.85 Y100.35 E.12542
G1 X79.85 Y101.121 E.0293
G1 X79.772 Y101.293 E.00718
G1 X79.621 Y101.35 E.00613
G1 X71.99 Y101.35 E.29003
G1 X71.64 Y101.312 E.01338
G1 X71.111 Y101.12 E.02139
G1 X70.631 Y100.735 E.02339
G1 X70.278 Y100.169 E.02535
G1 X70.154 Y99.55 E.02399
G1 X70.15 Y91.939 E.28927
M204 P2000
G1 X70.033 Y91.768 F24000
G1 E-2.5 F2700
G1 Z.4 F720
G1 X70.51 Y90.038 F24000
G1 Z.2 F720
G1 E2.5 F1500
M204 P500
;TYPE:Solid infill
;WIDTH:0.548661
G1 F2400
G1 X69.696 Y89.224 E.04841
G1 X69.696 Y89.939 E.03007
G1 X70.304 Y90.548 E.03619
G1 X70.304 Y90.813 E.01114
G1 X70.071 Y90.846 E.0099
G1 X69.959 Y90.917 E.00558
G1 X69.49 Y90.448 E.02789
M204 P2000
G1 E-2.5 F2700
G1 Z.4 F720
G1 X69.493 Y101.413 F24000
G1 Z.2 F720
G1 E2.5 F1500
M204 P500
;WIDTH:0.591415
G1 F2400
G1 X70.085 Y102.005 E.03818
M204 P2000
G1 E-2.5 F2700
G1 Z.4 F720
G1 X81.462 Y100.99 F24000
G1 Z.2 F720
G1 E2.5 F1500
M204 P500
;WIDTH:0.548661
G1 F2400
G1 X82.277 Y101.804 E.04844
G1 X81.561 Y101.804 E.03011
G1 X80.952 Y101.196 E.03619
G1 X80.687 Y101.196 E.01114
G1 X80.654 Y101.429 E.0099
G1 X80.583 Y101.541 E.00558
G1 X81.052 Y102.01 E.02789
M204 P2000
G1 E-2.5 F2700
G1 Z.4 F720
G1 X93.512 Y101.658 F24000
G1 Z.2 F720
G1 E2.5 F1500
M204 P500
;WIDTH:0.545615
G1 F2400
G1 X93.058 Y101.204 E.02684
G1 X92.857 Y101.444 E.01309
G1 X92.71 Y101.567 E.00801
G1 X93.153 Y102.01 E.02619
M204 P2000
G1 E-2.5 F2700
G1 Z.4 F720
G1 X107.875 Y85.594 F24000
G1 Z.2 F720
G1 E2.5 F1500
M204 P500
;WIDTH:0.502796
G1 F2400
G1 X109.047 Y86.766 E.06338
G1 X109.528 Y87.388 E.03007
G1 X109.912 Y88.11 E.03127
G1 X109.997 Y88.367 E.01035
G1 X107.114 Y85.483 E.15593
G1 X106.295 Y85.266 E.0324
G1 X106.242 Y85.262 E.00203
G1 X106.931 Y85.95 E.03723
G1 X107.569 Y86.238 E.02677
G1 X107.698 Y86.31 E.00565
G1 X108.193 Y86.656 E.02309
G1 X108.327 Y86.768 E.00668
G1 X108.815 Y87.267 E.02669
G1 X109.174 Y87.778 E.02388
G1 X109.261 Y87.929 E.00666
G1 X109.504 Y88.45 E.02198
G1 X109.547 Y88.567 E.00477
G1 X110.473 Y89.493 E.05008
M204 P2000
G1 E-2.5 F2700
G1 Z.4 F720
G1 X109.495 Y89.165 F24000
G1 Z.2 F720
G1 E2.5 F1500
M204 P500
G1 F2400
G1 X110.285 Y89.955 E.04272
G1 X110.284 Y90.374 E.01602
G1 X110.251 Y90.572 E.00768
G1 X109.788 Y90.108 E.02507
G1 X109.736 Y90.707 E.02299
G1 X110.159 Y91.13 E.02287
G1 X110.146 Y91.208 E.00302
G1 X110.001 Y91.622 E.01677
G1 X109.606 Y91.227 E.02136
G1 X109.564 Y91.386 E.00629
G1 X109.432 Y91.704 E.01317
G1 X109.813 Y92.085 E.0206
G1 X109.583 Y92.505 E.01831
G1 X109.222 Y92.144 E.01952
G1 X108.958 Y92.53 E.01788
G1 X109.315 Y92.888 E.01933
G1 X109.029 Y93.251 E.01767
G1 X108.665 Y92.888 E.01966
G1 X108.343 Y93.216 E.01758
G1 X108.691 Y93.564 E.01882
G1 X108.421 Y93.809 E.01394
G1 X108.339 Y93.862 E.00373
G1 X107.974 Y93.497 E.01974
G1 X107.686 Y93.698 E.01343
G1 X107.577 Y93.751 E.00463
G1 X107.943 Y94.117 E.01979
G1 X107.753 Y94.239 E.00863
G1 X107.516 Y94.341 E.00987
G1 X107.137 Y93.962 E.0205
G1 X107.02 Y94.018 E.00496
G1 X106.648 Y94.123 E.01478
G1 X107.061 Y94.536 E.02233
G1 X107.023 Y94.553 E.00159
G1 X106.545 Y94.67 E.01882
G1 X106.121 Y94.246 E.02293
G1 X105.52 Y94.295 E.02306
G1 X105.989 Y94.764 E.02536
G1 X105.505 Y94.804 E.01857
G1 X105.379 Y94.804 E.00482
G1 X104.539 Y93.965 E.0454
M204 P2000
