; generated by PrusaSlicer 2.6.1+win64 on 2023-12-19 at 12:49:47 UTC


;
;

;
;

;
;
; 

; external perimeters extrusion width = 0.45mm
; perimeters extrusion width = 0.45mm
; infill extrusion width = 0.45mm
; solid infill extrusion width = 0.45mm
; top infill extrusion width = 0.42mm
; first layer extrusion width = 0.50mm

M73 P0 R13
M201 X4000 Y4000 Z400 E5000 ; sets maximum accelerations, mm/sec^2
M203 X400 Y400 Z12 E80 ; sets maximum feedrates, mm / sec
M204 P4000 R1250 T4000 ; sets acceleration (P, T) and retract acceleration (R), mm/sec^2
M205 X8.00 Y8.00 Z2.00 E10.00 ; sets the jerk limits, mm/sec
M205 S0 T0 ; sets the minimum extruding and travel feed rate, mm/sec
;TYPE:Custom
M862.3 P "MINI" ; printer model check
M862.1 P0.4 ; nozzle diameter check
M862.5 P2 ; g-code level check
M862.6 P"Input shaper" ; FW feature check
G90 ; use absolute coordinates
M83 ; extruder relative mode
M104 S170 ; set extruder temp for bed leveling
M140 S85 ; set bed temp
M109 R170 ; wait for bed leveling temp
M190 S85 ; wait for bed temp
M569 S1 X Y ; set stealthchop for X Y
M204 T1250 ; set travel acceleration
G28 ; home all without mesh bed level
G29 ; mesh bed leveling 
M104 S240 ; set extruder temp
G92 E0
G1 Y-2 X179 F2400
G1 Z3 F720
M109 S240 ; wait for extruder temp

; intro line
G1 X170 F1000
G1 Z0.2 F720
G1 X110 E8 F900
G1 X40 E10 F700
G92 E0

M569 S0 X Y ; set spreadcycle for X Y
M204 T4000 ; restore travel acceleration
M572 W0.06 ; set smooth time
M221 S95 ; set flow
G21 ; set units to millimeters
G90 ; use absolute coordinates
M83 ; use relative distances for extrusion
M572 S0.4
M107
;LAYER_CHANGE
;Z:0.2
;HEIGHT:0.2
;BEFORE_LAYER_CHANGE
G92 E0.0
;0.2
M201 X4000 Y4000
M74 W0

M73 P1 R13
G1 E-2.5 F2700
G1 Z.2 F720
;AFTER_LAYER_CHANGE
;0.2
; printing object rotula soporte realsense.STL id:0 copy 0
G1 Z.4
M204 T4000
G1 X86.044 Y98.593 F24000
G1 Z.2 F720
G1 E2.5 F1500
M204 P500
;TYPE:Perimeter
;WIDTH:0.499999
G1 F2400
G1 X86.044 Y81.407 E.65318
G1 X91.305 Y81.407 E.19995
M73 P2 R13
G1 X92.251 Y81.467 E.03603
G1 X93.166 Y81.625 E.03529
G1 X94.057 Y81.88 E.03522
G1 X94.916 Y82.23 E.03525
G1 X95.733 Y82.671 E.03529
G1 X96.497 Y83.197 E.03525
G1 X97.199 Y83.803 E.03525
G1 X97.833 Y84.48 E.03525
G1 X98.39 Y85.222 E.03526
G1 X98.863 Y86.02 E.03526
G1 X99.248 Y86.864 E.03526
G1 X99.539 Y87.745 E.03526
G1 X99.702 Y88.504 E.0295
G1 X99.771 Y89.005 E.01922
G1 X99.829 Y89.725 E.02745
G1 X99.826 Y90.502 E.02953
G1 X99.722 Y91.424 E.03526
G1 X99.519 Y92.329 E.03525
G1 X99.219 Y93.207 E.03526
G1 X98.827 Y94.048 E.03526
G1 X98.347 Y94.841 E.03523
G1 X97.783 Y95.578 E.03527
G1 X97.144 Y96.25 E.03524
G1 X96.436 Y96.849 E.03525
G1 X95.667 Y97.368 E.03526
G1 X94.847 Y97.802 E.03526
G1 X93.985 Y98.144 E.03525
G1 X93.091 Y98.392 E.03526
G1 X92.175 Y98.541 E.03527
G1 X91.224 Y98.593 E.0362
G1 X86.104 Y98.593 E.19459
M204 P2000
G1 X85.587 Y99.05 F24000
M204 P500
;TYPE:External perimeter
G1 F2400
G1 X85.587 Y80.95 E.68791
G1 X91.32 Y80.95 E.21789
G1 X92.305 Y81.012 E.03751
G1 X93.268 Y81.179 E.03715
G1 X94.207 Y81.448 E.03712
G1 X95.112 Y81.816 E.03713
G1 X95.972 Y82.281 E.03716
G1 X96.776 Y82.835 E.03711
G1 X97.517 Y83.472 E.03714
G1 X98.184 Y84.186 E.03714
G1 X98.77 Y84.968 E.03714
G1 X99.269 Y85.808 E.03713
G1 X99.674 Y86.697 E.03713
G1 X99.981 Y87.625 E.03715
G1 X100.149 Y88.408 E.03044
G1 X100.225 Y88.958 E.0211
G1 X100.286 Y89.727 E.02932
G1 X100.283 Y90.529 E.03048
G1 X100.173 Y91.5 E.03714
G1 X99.959 Y92.453 E.03712
G1 X99.644 Y93.378 E.03714
G1 X99.231 Y94.263 E.03712
G1 X98.725 Y95.099 E.03714
G1 X98.132 Y95.875 E.03712
G1 X97.458 Y96.583 E.03715
G1 X96.712 Y97.214 E.03714
G1 X95.902 Y97.761 E.03715
G1 X95.039 Y98.217 E.0371
G1 X94.13 Y98.578 E.03717
G1 X93.189 Y98.839 E.03711
G1 X92.225 Y98.996 E.03712
G1 X91.237 Y99.05 E.03761
G1 X85.647 Y99.05 E.21246
M204 P2000
G1 X85.786 Y98.703 F24000
G1 E-2.5 F2700
G1 Z.4 F720
G1 X88.288 Y90.476 F24000
G1 Z.2 F720
G1 E2.5 F1500
M204 P500
;TYPE:Perimeter
G1 F2400
G1 X88.244 Y90.06 E.0159
G1 X88.279 Y89.537 E.01992
G1 X88.404 Y89.028 E.01992
G1 X88.616 Y88.549 E.01991
G1 X88.908 Y88.114 E.01991
G1 X89.271 Y87.736 E.01992
G1 X89.695 Y87.427 E.01994
G1 X90.165 Y87.196 E.0199
G1 X90.668 Y87.051 E.0199
G1 X91.189 Y86.994 E.01992
G1 X91.712 Y87.03 E.01992
G1 X92.221 Y87.155 E.01992
G1 X92.7 Y87.367 E.01991
G1 X93.135 Y87.659 E.01991
G1 X93.513 Y88.022 E.01992
G1 X93.822 Y88.445 E.01991
G1 X94.053 Y88.916 E.01994
G1 X94.198 Y89.419 E.0199
G1 X94.254 Y89.94 E.01992
G1 X94.219 Y90.463 E.01992
G1 X94.093 Y90.972 E.01993
G1 X93.881 Y91.451 E.01991
G1 X93.59 Y91.886 E.01989
G1 X93.226 Y92.264 E.01994
G1 X92.803 Y92.573 E.01991
G1 X92.333 Y92.803 E.01989
G1 X91.83 Y92.949 E.01991
G1 X91.309 Y93.005 E.01992
G1 X90.786 Y92.97 E.01992
G1 X90.277 Y92.844 E.01993
G1 X89.798 Y92.632 E.01991
G1 X89.363 Y92.34 E.01991
G1 X88.985 Y91.977 E.01992
G1 X88.676 Y91.554 E.01991
G1 X88.445 Y91.084 E.0199
G1 X88.295 Y90.535 E.02163
M204 P2000
G1 X88.733 Y90.403 F24000
M204 P500
;TYPE:External perimeter
G1 F2400
G1 X88.699 Y89.98 E.01613
G1 X88.741 Y89.537 E.01691
G1 X88.86 Y89.109 E.01688
G1 X89.051 Y88.708 E.01688
G1 X89.308 Y88.345 E.0169
G1 X89.625 Y88.034 E.01688
G1 X89.991 Y87.782 E.01689
G1 X90.396 Y87.597 E.01692
G1 X90.786 Y87.492 E.01535
G1 X91.269 Y87.45 E.01843
G1 X91.711 Y87.492 E.01687
G1 X92.14 Y87.61 E.01691
G1 X92.541 Y87.801 E.01688
G1 X92.963 Y88.119 E.02008
G1 X93.215 Y88.376 E.01368
G1 X93.467 Y88.742 E.01689
G1 X93.699 Y89.321 E.02371
G1 X93.764 Y89.577 E.01004
G1 X93.796 Y90.055 E.01821
G1 X93.757 Y90.462 E.01554
G1 X93.638 Y90.891 E.01692
G1 X93.372 Y91.4 E.02183
G1 X93.19 Y91.654 E.01188
G1 X92.873 Y91.966 E.0169
G1 X92.507 Y92.218 E.01689
G1 X92.102 Y92.403 E.01692
G1 X91.59 Y92.522 E.01998
G1 X91.229 Y92.55 E.01376
G1 X90.787 Y92.508 E.01687
G1 X90.358 Y92.389 E.01692
G1 X89.957 Y92.198 E.01688
G1 X89.595 Y91.94 E.01689
G1 X89.283 Y91.624 E.01688
G1 X89.031 Y91.258 E.01689
G1 X88.846 Y90.853 E.01692
G1 X88.744 Y90.461 E.01539
M204 P2000
G1 X88.358 Y90.262 F24000
G1 E-2.5 F2700
G1 Z.4 F720
G1 X98.338 Y85.493 F24000
G1 Z.2 F720
G1 E2.5 F1500
M204 P500
;TYPE:Solid infill
;WIDTH:0.503435
G1 F2400
G1 X96.915 Y84.07 E.07706
G1 X96.259 Y83.505 E.03315
G1 X95.53 Y83.003 E.03389
G1 X94.805 Y82.612 E.03154
G1 X98.623 Y86.429 E.20673
G1 X98.886 Y87.006 E.02428
G1 X99.052 Y87.51 E.02032
G1 X93.734 Y82.192 E.28799
G1 X93.079 Y82.004 E.02609
G1 X92.857 Y81.966 E.00862
G1 X99.28 Y88.389 E.34782
G1 X99.35 Y88.713 E.01269
G1 X99.396 Y89.156 E.01705
G1 X92.085 Y81.846 E.39589
G1 X91.39 Y81.802 E.02667
G1 X99.44 Y89.852 E.43593
G1 X99.435 Y90.498 E.02474
G1 X90.733 Y81.796 E.47124
G1 X90.082 Y81.796 E.02493
G1 X99.369 Y91.083 E.50292
G1 X99.338 Y91.359 E.01064
G1 X99.275 Y91.64 E.01103
G1 X89.43 Y81.796 E.53311
G1 X88.779 Y81.796 E.02493
G1 X99.156 Y92.172 E.56192
G1 X98.995 Y92.663 E.01979
G1 X88.128 Y81.796 E.58848
G1 X87.477 Y81.796 E.02493
G1 X92.562 Y86.882 E.2754
M73 P3 R13
G1 X92.981 Y87.078 E.01771
G1 X93.378 Y87.355 E.01854
G1 X93.497 Y87.457 E.006
G1 X93.852 Y87.817 E.01936
G1 X94.143 Y88.227 E.01925
G1 X94.224 Y88.363 E.00606
G1 X94.38 Y88.7 E.01422
G1 X98.822 Y93.141 E.24052
G1 X98.614 Y93.585 E.01877
G1 X94.606 Y89.577 E.21705
G1 X94.646 Y90.003 E.01638
G1 X94.625 Y90.247 E.00938
G1 X98.393 Y94.015 E.20405
G1 X98.147 Y94.42 E.01814
G1 X94.536 Y90.809 E.19555
G1 X94.448 Y91.144 E.01326
G1 X94.375 Y91.299 E.00656
G1 X97.883 Y94.808 E.19
G1 X97.601 Y95.177 E.01778
G1 X94.164 Y91.739 E.18615
G1 X93.896 Y92.123 E.01793
G1 X97.298 Y95.525 E.18423
G1 X96.98 Y95.858 E.01763
G1 X93.579 Y92.457 E.18417
G1 X93.435 Y92.6 E.00777
G1 X93.222 Y92.751 E.01
G1 X96.639 Y96.168 E.18504
G1 X96.286 Y96.467 E.01771
G1 X92.823 Y93.004 E.18753
G1 X92.371 Y93.203 E.01891
G1 X95.906 Y96.738 E.19143
G1 X95.517 Y97.001 E.01798
G1 X91.856 Y93.34 E.19825
G1 X91.258 Y93.392 E.02299
G1 X95.096 Y97.231 E.20787
G1 X94.669 Y97.454 E.01845
G1 X90.229 Y93.014 E.24044
M204 P2000
G1 E-2.5 F2700
G1 Z.4 F720
G1 X91.918 Y86.888 F24000
G1 Z.2 F720
G1 E2.5 F1500
M204 P500
G1 F2400
G1 X86.825 Y81.796 E.27577
G1 X86.432 Y81.796 E.01505
G1 X86.432 Y82.054 E.00988
G1 X91 Y86.622 E.24737
G1 X90.66 Y86.654 E.01308
G1 X90.439 Y86.712 E.00875
G1 X86.432 Y82.705 E.21699
G1 X86.432 Y83.357 E.02497
G1 X89.946 Y86.87 E.19027
G1 X89.627 Y87.018 E.01347
G1 X89.51 Y87.086 E.00518
G1 X86.432 Y84.008 E.16668
G1 X86.432 Y84.659 E.02493
G1 X89.126 Y87.352 E.14586
G1 X89.002 Y87.456 E.0062
G1 X88.79 Y87.668 E.01148
G1 X86.432 Y85.31 E.12769
G1 X86.432 Y85.962 E.02497
G1 X88.496 Y88.025 E.11174
G1 X88.354 Y88.228 E.00949
G1 X88.245 Y88.426 E.00865
G1 X86.432 Y86.613 E.09818
G1 X86.432 Y87.264 E.02493
G1 X88.046 Y88.878 E.0874
G1 X87.911 Y89.394 E.02042
G1 X86.432 Y87.915 E.08009
G1 X86.432 Y88.567 E.02497
G1 X87.853 Y89.987 E.07692
G1 X87.903 Y90.588 E.02309
G1 X87.939 Y90.724 E.00539
G1 X86.432 Y89.218 E.08158
G1 X86.432 Y89.869 E.02493
G1 X94.203 Y97.64 E.42082
G1 X93.861 Y97.775 E.01408
G1 X93.725 Y97.813 E.00541
G1 X86.432 Y90.521 E.39491
G1 X86.432 Y91.172 E.02493
G1 X93.215 Y97.954 E.36729
G1 X93.007 Y98.012 E.00827
G1 X92.675 Y98.066 E.01288
G1 X86.432 Y91.823 E.33808
G1 X86.432 Y92.474 E.02493
G1 X92.114 Y98.156 E.3077
G1 X91.496 Y98.189 E.0237
G1 X86.432 Y93.126 E.2742
G1 X86.432 Y93.777 E.02493
G1 X90.86 Y98.204 E.23976
G1 X90.208 Y98.204 E.02497
G1 X86.432 Y94.428 E.20448
G1 X86.432 Y95.079 E.02493
G1 X89.557 Y98.204 E.16923
G1 X88.906 Y98.204 E.02493
M73 P4 R13
G1 X86.432 Y95.731 E.13395
G1 X86.432 Y96.382 E.02493
G1 X88.255 Y98.204 E.09869
G1 X87.603 Y98.204 E.02497
G1 X86.432 Y97.033 E.06341
G1 X86.432 Y97.684 E.02493
G1 X87.158 Y98.41 E.03932
M204 P2000
; stop printing object rotula soporte realsense.STL id:0 copy 0
;LAYER_CHANGE
;Z:0.4
;HEIGHT:0.2
;BEFORE_LAYER_CHANGE
G92 E0.0
;0.4
M201 X3999.86 Y3999.86
M74 W0.0591328

G1 E-2.5 F2700
G1 Z.4 F720
;AFTER_LAYER_CHANGE
;0.4
M104 S245 ; set temperature
M140 S90 ; set bed temperature
; printing object rotula soporte realsense.STL id:0 copy 0
G1 Z.6
G1 X98.619 Y85.07 F24000
G1 Z.4 F720
G1 E2.5 F1500
;TYPE:Perimeter
;WIDTH:0.449999
G1 F4800
G1 X99.107 Y85.892 E.03236
G1 X99.504 Y86.763 E.0324
G1 X99.805 Y87.672 E.03241
G1 X99.971 Y88.446 E.02679
G1 X100.046 Y88.994 E.01872
G1 X100.104 Y89.726 E.02485

G1 X100.101 Y90.518 E.02681
G1 X99.993 Y91.469 E.0324
G1 X99.784 Y92.404 E.03243
G1 X99.475 Y93.31 E.0324
G1 X99.07 Y94.177 E.03239
G1 X98.574 Y94.996 E.03241
G1 X97.993 Y95.757 E.03241
G1 X97.333 Y96.45 E.03239
G1 X96.602 Y97.069 E.03242
G1 X95.809 Y97.605 E.0324
G1 X94.962 Y98.052 E.03242
G1 X94.072 Y98.405 E.03241
G1 X93.15 Y98.661 E.03239
G1 X92.205 Y98.815 E.03241
G1 X91.232 Y98.868 E.03298
G1 X91.189 Y98.868 E.00146
G1 X85.812 Y98.868 E.182
G1 F1500
G1 X85.137 Y98.868 E.02285
G1 F966.666
G1 X84.937 Y98.868 E.00677

M204 P1500
;TYPE:Overhang perimeter
G1 F900

G1 X84.894 Y98.868 E.00146
G1 X84.894 Y97.95 E.03107
G1 X84.894 Y82.05 E.5382
G1 X84.894 Y81.132 E.03107
G1 X84.937 Y81.132 E.00146
G1 F966.666

M204 P2000
;TYPE:Perimeter

G1 X85.137 Y81.132 E.00677
G1 F1500
G1 X85.812 Y81.132 E.02285
G1 F4800
G1 X91.271 Y81.132 E.18478
G1 X91.314 Y81.132 E.00146
G1 X92.284 Y81.193 E.0329
G1 X93.227 Y81.356 E.03239
G1 X94.147 Y81.62 E.0324
G1 X95.034 Y81.981 E.03242
G1 X95.876 Y82.436 E.0324
G1 X96.665 Y82.979 E.03242
G1 X97.39 Y83.604 E.0324
G1 X98.029 Y84.288 E.03168
G1 X98.583 Y85.022 E.03113

G1 X98.958 Y84.843 F24000
M204 P1500
;TYPE:External perimeter
G1 F2699.992

G1 X99.468 Y85.703 E.03384
G1 X99.884 Y86.615 E.03393
G1 X100.198 Y87.565 E.03387
G1 X100.369 Y88.361 E.02756
G1 X100.451 Y88.952 E.0202
G1 X100.511 Y89.728 E.02635
G1 F2700

G1 F2699.994

G1 X100.508 Y90.542 E.02755
G1 X100.395 Y91.537 E.0339
G1 X100.176 Y92.514 E.03389
G1 X99.853 Y93.462 E.0339
G1 X99.43 Y94.369 E.03388
G1 X98.911 Y95.226 E.03391
G1 X98.303 Y96.022 E.0339
G1 X97.613 Y96.747 E.03388
G1 X96.848 Y97.394 E.03391
G1 X96.018 Y97.954 E.03389
G1 X95.133 Y98.422 E.03389
G1 X94.202 Y98.792 E.03391
G1 X93.237 Y99.059 E.03389
G1 X92.249 Y99.22 E.03388
G1 X91.243 Y99.275 E.0341
G1 X90.793 Y99.275 E.01523
G1 X85.812 Y99.275 E.1686
G1 F1500
G1 X85.137 Y99.275 E.02285
G1 F966.666
G1 X84.937 Y99.275 E.00677

;TYPE:Overhang perimeter
G1 F900

G1 X84.487 Y99.275 E.01523
G1 X84.487 Y97.95 E.04485
G1 X84.487 Y82.05 E.5382
G1 X84.487 Y80.725 E.04485
G1 X84.937 Y80.725 E.01523
G1 F966.666

;TYPE:External perimeter

G1 X85.137 Y80.725 E.00677
G1 F1500
G1 X85.812 Y80.725 E.02285
G1 F2699.997
G1 X90.877 Y80.725 E.17144
G1 F2700
G1 X91.327 Y80.725 E.01523
G1 F2699.996
G1 X92.331 Y80.788 E.03405
G1 X93.318 Y80.959 E.03391
G1 X94.281 Y81.235 E.03391
G1 X95.208 Y81.613 E.03389
G1 X96.089 Y82.088 E.03388
G1 X96.914 Y82.656 E.0339
G1 F2700
G1 X97.673 Y83.31 E.03391
G1 F2699.997
G1 X98.342 Y84.025 E.03314
G1 X98.921 Y84.795 E.03261
G1 F2700

M204 P2000
G1 X98.781 Y85.201 F24000
G1 E-2.5 F2700
G1 Z.6 F720
G1 X88.566 Y90.479 F24000
G1 Z.4 F720
G1 E2.5 F1500
;TYPE:Perimeter
G1 F2700
G1 X88.551 Y90.421 E.00203
G1 X88.519 Y89.947 E.01608
G1 X88.57 Y89.473 E.01614
G1 X88.702 Y89.016 E.0161
G1 X88.911 Y88.589 E.01609
G1 X89.192 Y88.204 E.01613
G1 X89.535 Y87.874 E.01611
G1 X89.93 Y87.609 E.0161
G1 X90.365 Y87.416 E.01611
G1 X90.722 Y87.321 E.0125
G1 X91.237 Y87.268 E.01752
G1 X91.771 Y87.319 E.01816
G1 X92.233 Y87.453 E.01628
G1 X92.66 Y87.662 E.01609
G1 X93.092 Y87.99 E.01836
G1 X93.374 Y88.286 E.01384
G1 X93.64 Y88.681 E.01612
G1 X93.874 Y89.274 E.02158
G1 X93.947 Y89.578 E.01058
G1 X93.977 Y90.071 E.01672
G1 X93.928 Y90.526 E.01549
G1 X93.796 Y90.983 E.0161
G1 X93.521 Y91.504 E.01994
G1 X93.306 Y91.795 E.01225
G1 X92.97 Y92.118 E.01578
G1 X92.568 Y92.391 E.01645
G1 X92.133 Y92.583 E.01609
G1 X91.606 Y92.703 E.01829
G1 X91.196 Y92.73 E.01391
G1 X90.722 Y92.679 E.01614
G1 X90.265 Y92.547 E.0161
G1 X89.838 Y92.337 E.01611
G1 X89.453 Y92.057 E.01611
G1 X89.13 Y91.721 E.01578
G1 X88.858 Y91.319 E.01643
G1 X88.666 Y90.883 E.01613
G1 X88.58 Y90.537 E.01207
G1 X88.957 Y90.385 F24000
M204 P1500
;TYPE:External perimeter
G1 F2699.963

G1 X88.925 Y89.982 E.01368
G1 F2700
G1 X88.963 Y89.579 E.0137
G1 X89.071 Y89.188 E.01373
G1 X89.245 Y88.822 E.01372
G1 X89.48 Y88.492 E.01371
G1 X89.768 Y88.208 E.01369
G1 X90.102 Y87.978 E.01373
G1 X90.471 Y87.81 E.01372
G1 X90.828 Y87.714 E.01251
G1 F2694.579
G1 X91.258 Y87.676 E.01461
G1 X91.67 Y87.714 E.014
G1 F2700
G1 X92.061 Y87.822 E.01373
G1 X92.426 Y87.996 E.01369
G1 F2699.998
G1 X92.804 Y88.278 E.01596
G1 X93.041 Y88.519 E.01144
G1 F2700
G1 X93.271 Y88.853 E.01373
G1 F2699.998
G1 X93.481 Y89.379 E.01917
G1 X93.573 Y89.982 E.02065
G1 F2700
G1 X93.535 Y90.421 E.01492
G1 X93.427 Y90.811 E.0137
G1 X93.188 Y91.271 E.01755
G1 X93.018 Y91.507 E.00985
G1 F2694.576
G1 X92.736 Y91.786 E.01343
G1 X92.396 Y92.022 E.01401
G1 F2700
G1 X92.027 Y92.19 E.01372
G1 F2699.992
G1 X91.571 Y92.298 E.01586
G1 X91.231 Y92.324 E.01154
G1 F2700
G1 X90.828 Y92.286 E.0137
G1 X90.437 Y92.178 E.01373
G1 X90.071 Y92.004 E.01372
G1 X89.741 Y91.769 E.01371
G1 F2694.579
G1 X89.463 Y91.486 E.01343
G1 X89.227 Y91.147 E.01398
G1 F2700
G1 X89.059 Y90.778 E.01372
G1 F2687.304
G1 X88.972 Y90.443 E.01172

M204 P2000
G1 X88.582 Y90.245 F24000
G1 E-2.5 F2700
G1 Z.6 F720
G1 X85.28 Y98.705 F24000
G1 Z.4 F720
G1 E2.5 F1500
M204 P1500
;TYPE:Bridge infill
;WIDTH:0.531415
G1 F3000
G1 X85.28 Y81.478 E.69974
G1 X85.769 Y81.478 E.01986
G1 X85.769 Y98.522 E.6923
G1 X86.257 Y98.522 E.01982
G1 X86.257 Y81.295 E.69974
M204 P2000
G1 X86.92 Y81.511 F24000
M204 P3000
;TYPE:Solid infill
;WIDTH:0.548766
G1 F6523.724
G1 X86.876 Y81.467 E.00262
G1 X86.815 Y81.483 E.00265
G1 X86.798 Y81.544 E.00266
G1 X86.843 Y81.589 E.00268
G1 X86.904 Y81.572 E.00266
;WIDTH:0.449999
G1 F8106.534
G1 X87.554 Y81.478 E.02223
G1 X86.81 Y82.223 E.03564
G1 X86.81 Y82.798 E.01946
G1 X88.13 Y81.478 E.06319
G1 X88.706 Y81.478 E.0195
G1 X86.81 Y83.374 E.09076
G1 X86.81 Y83.95 E.0195
G1 X89.281 Y81.478 E.11831
G1 X89.857 Y81.478 E.0195
G1 X86.81 Y84.525 E.14586
G1 X86.81 Y85.101 E.0195
M73 P5 R13
G1 X90.433 Y81.478 E.17343
G1 X91.008 Y81.478 E.01946
G1 X86.81 Y85.677 E.20098
G1 X86.81 Y86.252 E.01946
