; generated by PrusaSlicer 2.6.1+win64 on 2023-12-19 at 19:34:37 UTC


;
;

;
;

;
;
; 

; external perimeters extrusion width = 0.45mm
; perimeters extrusion width = 0.45mm
; infill extrusion width = 0.45mm
; solid infill extrusion width = 0.45mm
; top infill extrusion width = 0.42mm
; first layer extrusion width = 0.50mm

M73 P0 R40
M201 X4000 Y4000 Z400 E5000 ; sets maximum accelerations, mm/sec^2
M203 X400 Y400 Z12 E80 ; sets maximum feedrates, mm / sec
M204 P4000 R1250 T4000 ; sets acceleration (P, T) and retract acceleration (R), mm/sec^2
M205 X8.00 Y8.00 Z2.00 E10.00 ; sets the jerk limits, mm/sec
M205 S0 T0 ; sets the minimum extruding and travel feed rate, mm/sec
;TYPE:Custom
M862.3 P "MINI" ; printer model check
M862.1 P0.4 ; nozzle diameter check
M862.5 P2 ; g-code level check
M862.6 P"Input shaper" ; FW feature check
G90 ; use absolute coordinates
M83 ; extruder relative mode
M104 S170 ; set extruder temp for bed leveling
M140 S85 ; set bed temp
M109 R170 ; wait for bed leveling temp
M190 S85 ; wait for bed temp
M569 S1 X Y ; set stealthchop for X Y
M204 T1250 ; set travel acceleration
G28 ; home all without mesh bed level
G29 ; mesh bed leveling 
M104 S240 ; set extruder temp
G92 E0
G1 Y-2 X179 F2400
G1 Z3 F720
M109 S240 ; wait for extruder temp

; intro line
G1 X170 F1000
G1 Z0.2 F720
G1 X110 E8 F900
G1 X40 E10 F700
G92 E0

M569 S0 X Y ; set spreadcycle for X Y
M204 T4000 ; restore travel acceleration
M572 W0.06 ; set smooth time
M221 S95 ; set flow
G21 ; set units to millimeters
G90 ; use absolute coordinates
M83 ; use relative distances for extrusion
M572 S0.4
M107
;LAYER_CHANGE
;Z:0.2
;HEIGHT:0.2
;BEFORE_LAYER_CHANGE
G92 E0.0
;0.2
M201 X4000 Y4000
M74 W0

G1 E-2.5 F2700
G1 Z.2 F720
;AFTER_LAYER_CHANGE
;0.2
; printing object soporte realsense.STL id:0 copy 0
G1 Z.4
M204 T4000
G1 X142.657 Y90.931 F24000
G1 Z.2 F720
G1 E2.5 F1500
M204 P500
;TYPE:Perimeter
;WIDTH:0.499999
G1 F2400
G1 X142.737 Y90.95 E.00313
G1 X143.129 Y91.144 E.01662
G1 X143.48 Y91.403 E.01658
G1 X143.782 Y91.719 E.01661
G1 X144.024 Y92.083 E.01661
G1 X144.199 Y92.483 E.01659
G1 X144.281 Y92.79 E.01208
G1 X144.332 Y93.291 E.01914
G1 X144.281 Y93.778 E.01861
G1 X144.158 Y94.197 E.0166
G1 X143.964 Y94.588 E.01659
G1 X143.705 Y94.94 E.01661
G1 X143.389 Y95.241 E.01659
G1 X143.025 Y95.483 E.01661
G1 X142.625 Y95.659 E.01661
G1 X142.122 Y95.768 E.01956
G1 X141.74 Y95.787 E.01454
G1 X141.33 Y95.741 E.01568
G1 X140.833 Y95.581 E.01984
G1 X140.52 Y95.424 E.01331
G1 X140.168 Y95.165 E.01661
G1 X139.867 Y94.848 E.01661
G1 X139.625 Y94.485 E.01658
G1 X139.449 Y94.085 E.01661
G1 X139.346 Y93.66 E.01662
G1 X139.319 Y93.224 E.0166
G1 X139.367 Y92.79 E.0166
G1 X139.49 Y92.371 E.0166
G1 X139.684 Y91.979 E.01662
G1 X139.943 Y91.628 E.01658
G1 X140.26 Y91.326 E.01664
G1 X140.623 Y91.084 E.01658
G1 X141.023 Y90.909 E.01659
G1 X141.449 Y90.821 E.01653
;WIDTH:0.469874
G1 X142.19 Y90.821 E.02631
;WIDTH:0.499999
G1 X142.598 Y90.917 E.01593
M204 P2000
G1 X142.599 Y91.391 F24000
M204 P500
;TYPE:External perimeter
G1 F2400
G1 X142.866 Y91.518 E.01124
G1 X143.157 Y91.726 E.01359
G1 X143.407 Y91.981 E.01357
G1 X143.609 Y92.276 E.01359
G1 X143.757 Y92.601 E.01357
G1 X143.839 Y92.908 E.01208
G1 X143.874 Y93.304 E.01511
G1 X143.839 Y93.659 E.01356
G1 X143.744 Y94.004 E.0136
G1 X143.589 Y94.326 E.01358
G1 X143.382 Y94.617 E.01357
G1 X143.127 Y94.867 E.01357
G1 X142.832 Y95.069 E.01359
G1 X142.507 Y95.217 E.01357
G1 X142.082 Y95.313 E.01656
G1 X141.78 Y95.332 E.0115
G1 X141.448 Y95.299 E.01268
G1 X141.026 Y95.167 E.0168
G1 X140.782 Y95.049 E.0103
G1 X140.491 Y94.841 E.01359
G1 X140.241 Y94.586 E.01357
G1 X140.039 Y94.292 E.01356
G1 X139.891 Y93.966 E.01361
G1 X139.802 Y93.62 E.01358
G1 X139.774 Y93.264 E.01357
G1 X139.809 Y92.908 E.0136
G1 X139.905 Y92.564 E.01357
G1 X140.059 Y92.242 E.01357
G1 X140.267 Y91.951 E.01359
G1 X140.522 Y91.701 E.01357
G1 X140.816 Y91.499 E.01356
G1 X141.142 Y91.351 E.01361
G1 X141.488 Y91.262 E.01358
G1 X141.817 Y91.236 E.01254
G1 X142.2 Y91.268 E.01461
G1 X142.545 Y91.365 E.01362
M204 P2000
G1 X142.829 Y91.203 F24000
G1 E-2.5 F2700
G1 Z.4 F720
G1 X169.407 Y111.156 F24000
G1 Z.2 F720
G1 E2.5 F1500
M204 P500
;TYPE:Perimeter
G1 F2400
G1 X169.296 Y111.191 E.00442
G1 X168.981 Y111.191 E.01197
G1 X168.981 Y119.005 E.29698
G1 X168.946 Y119.222 E.00835
G1 X168.851 Y119.408 E.00794
G1 X168.575 Y119.631 E.01349
G1 X168.275 Y119.691 E.01163
G1 X155.853 Y119.691 E.47211
G1 X155.612 Y119.647 E.00931
G1 X155.384 Y119.506 E.01019
G1 X155.207 Y119.236 E.01227
G1 X155.167 Y119.005 E.00891
G1 X155.167 Y111.191 E.29698
G1 X154.853 Y111.191 E.01193
G1 X154.45 Y111.06 E.01611
G1 X154.262 Y110.854 E.0106
G1 X154.173 Y110.595 E.01041
G1 X154.167 Y92.062 E.70437
G1 X154.222 Y91.794 E.0104
G1 X154.311 Y91.643 E.00666
G1 X154.45 Y91.508 E.00736
G1 X154.853 Y91.377 E.01611
G1 X155.167 Y91.377 E.01193
G1 X155.167 Y83.562 E.29702
G1 X155.207 Y83.332 E.00887
G1 X155.384 Y83.062 E.01227
G1 X155.65 Y82.907 E.0117
G1 X156.191 Y82.877 E.02059
G1 X168.296 Y82.877 E.46007
G1 X168.575 Y82.936 E.01084
G1 X168.851 Y83.16 E.01351
G1 X168.946 Y83.346 E.00794
G1 X168.981 Y83.562 E.00832
G1 X168.981 Y91.377 E.29702
G1 X169.296 Y91.377 E.01197
G1 X169.687 Y91.499 E.01557
G1 X169.893 Y91.727 E.01168
G1 X169.981 Y92.062 E.01316
G1 X169.981 Y110.505 E.70095
G1 X169.893 Y110.841 E.0132
G1 X169.687 Y111.068 E.01165
G1 X169.464 Y111.138 E.00888
M204 P2000
G1 X169.296 Y110.734 F24000
M204 P500
;TYPE:External perimeter
G1 F2400
G1 X168.524 Y110.734 E.02934
G1 X168.524 Y119.005 E.31435
G1 X168.481 Y119.139 E.00535
G1 X168.343 Y119.229 E.00626
G1 X155.853 Y119.234 E.4747
G1 X155.696 Y119.172 E.00642
G1 X155.624 Y119.005 E.00691
G1 X155.624 Y110.734 E.31435
G1 X154.853 Y110.734 E.0293
G1 X154.672 Y110.645 E.00767
G1 X154.624 Y110.505 E.00562
G1 X154.624 Y92.062 E.70095
G1 X154.672 Y91.922 E.00562
G1 X154.853 Y91.834 E.00765
G1 X155.624 Y91.834 E.0293
G1 X155.624 Y83.562 E.31439
G1 X155.696 Y83.396 E.00688
G1 X155.853 Y83.334 E.00642
G1 X168.296 Y83.334 E.47291
G1 X168.437 Y83.383 E.00567
G1 X168.512 Y83.49 E.00497
G1 X168.524 Y83.562 E.00277
G1 X168.524 Y91.834 E.31439
G1 X169.296 Y91.834 E.02934
G1 X169.426 Y91.875 E.00518
G1 X169.495 Y91.951 E.0039
G1 X169.524 Y92.062 E.00436
G1 X169.524 Y110.505 E.70095
G1 X169.495 Y110.617 E.0044
G1 X169.426 Y110.693 E.0039
G1 X169.353 Y110.716 E.00291
M204 P2000
G1 X169.16 Y111.11 F24000
G1 E-2.5 F2700
G1 Z.4 F720
G1 X160.16 Y80.394 F24000
G1 Z.2 F720
G1 E2.5 F1500
M204 P500
;TYPE:Perimeter
G1 F2400
G1 X160.117 Y80.348 E.00239
G1 X159.875 Y79.985 E.01658
G1 X159.699 Y79.585 E.01661
G1 X159.596 Y79.16 E.01662
G1 X159.569 Y78.724 E.0166
G1 X159.617 Y78.29 E.0166
G1 X159.74 Y77.871 E.0166
G1 X159.934 Y77.479 E.01662
G1 X160.193 Y77.128 E.01658
G1 X160.51 Y76.826 E.01664
G1 X160.873 Y76.584 E.01658
G1 X161.273 Y76.409 E.01659
G1 X161.698 Y76.306 E.01662
G1 X162.101 Y76.28 E.01535
G1 X162.568 Y76.327 E.01784
G1 X162.987 Y76.45 E.0166
G1 X163.379 Y76.644 E.01662
G1 X163.73 Y76.903 E.01658
G1 X164.032 Y77.219 E.01661
G1 X164.274 Y77.583 E.01661
G1 X164.449 Y77.983 E.01659
G1 X164.552 Y78.408 E.01662
G1 X164.579 Y78.844 E.0166
G1 X164.531 Y79.278 E.0166
G1 X164.408 Y79.697 E.0166
G1 X164.214 Y80.088 E.01659
G1 X163.955 Y80.44 E.01661
G1 X163.639 Y80.741 E.01659
G1 X163.275 Y80.983 E.01661
G1 X162.875 Y81.159 E.01661
G1 X162.45 Y81.261 E.01661
G1 X162.014 Y81.289 E.0166
G1 X161.58 Y81.241 E.0166
G1 X161.161 Y81.118 E.0166
G1 X160.77 Y80.924 E.01659
G1 X160.418 Y80.665 E.01661
G1 X160.201 Y80.437 E.01196
M204 P2000
G1 X160.355 Y79.889 F24000
M204 P500
;TYPE:External perimeter
G1 F2400
G1 X160.289 Y79.792 E.00446
G1 X160.141 Y79.466 E.01361
G1 X160.052 Y79.12 E.01358
G1 X160.024 Y78.764 E.01357
G1 X160.059 Y78.408 E.0136
G1 X160.155 Y78.064 E.01357
G1 X160.309 Y77.742 E.01357
G1 X160.517 Y77.451 E.01359
G1 X160.772 Y77.201 E.01357
G1 X161.066 Y76.999 E.01356
G1 X161.392 Y76.851 E.01361
G1 X161.738 Y76.762 E.01358
G1 X162.067 Y76.736 E.01254
G1 X162.45 Y76.768 E.01461
G1 X162.794 Y76.864 E.01357
G1 X163.116 Y77.018 E.01357
G1 X163.407 Y77.226 E.01359
G1 X163.657 Y77.481 E.01357
G1 X163.859 Y77.776 E.01359
G1 X164.007 Y78.101 E.01357
G1 X164.096 Y78.447 E.01358
G1 X164.124 Y78.804 E.01361
G1 X164.089 Y79.159 E.01356
G1 X163.994 Y79.504 E.0136
G1 X163.839 Y79.826 E.01358
G1 X163.632 Y80.117 E.01357
G1 X163.377 Y80.367 E.01357
G1 X163.082 Y80.569 E.01359
G1 X162.757 Y80.717 E.01357
G1 X162.41 Y80.806 E.01362
G1 X162.054 Y80.834 E.01357
G1 X161.699 Y80.799 E.01356
G1 X161.354 Y80.703 E.01361
G1 X161.032 Y80.549 E.01357
G1 X160.741 Y80.341 E.01359
G1 X160.491 Y80.086 E.01357
G1 X160.389 Y79.938 E.00683
M204 P2000
M73 P1 R40
G1 X160.238 Y79.902 F24000
G1 E-2.5 F2700
G1 Z.4 F720
G1 X166.225 Y48.142 F24000
G1 Z.2 F720
G1 E2.5 F1500
M204 P500
;TYPE:Perimeter
G1 F2400
G1 X166.199 Y48.085 E.00238
G1 X166.096 Y47.66 E.01662
G1 X166.069 Y47.344 E.01205
G1 X166.117 Y46.79 E.02113
G1 X166.24 Y46.371 E.0166
G1 X166.434 Y45.979 E.01662
G1 X166.693 Y45.628 E.01658
G1 X167.01 Y45.326 E.01664
G1 X167.373 Y45.084 E.01658
G1 X167.773 Y44.909 E.01659
G1 X168.198 Y44.806 E.01662
G1 X168.665 Y44.785 E.01777
G1 X169.068 Y44.827 E.0154
G1 X169.487 Y44.95 E.0166
G1 X169.879 Y45.144 E.01662
G1 X170.23 Y45.403 E.01658
G1 X170.532 Y45.719 E.01661
G1 X170.774 Y46.083 E.01661
G1 X170.949 Y46.483 E.01659
G1 X171.052 Y46.908 E.01662
G1 X171.079 Y47.344 E.0166
G1 X171.031 Y47.778 E.0166
G1 X170.908 Y48.197 E.0166
G1 X170.714 Y48.588 E.01659
G1 X170.455 Y48.94 E.01661
G1 X170.139 Y49.241 E.01659
G1 X169.803 Y49.466 E.01537
G1 X169.375 Y49.658 E.01783
G1 X168.95 Y49.761 E.01662
G1 X168.514 Y49.789 E.0166
G1 X168.08 Y49.741 E.0166
G1 X167.661 Y49.618 E.0166
G1 X167.25 Y49.41 E.01751
G1 X166.918 Y49.165 E.01568
G1 X166.617 Y48.848 E.01661
G1 X166.375 Y48.485 E.01658
G1 X166.249 Y48.197 E.01195
M204 P2000
G1 X166.579 Y47.726 F24000
M204 P500
;TYPE:External perimeter
G1 F2400
G1 X166.552 Y47.62 E.00416
G1 X166.524 Y47.304 E.01206
G1 X166.559 Y46.908 E.01511
G1 X166.655 Y46.564 E.01357
G1 X166.809 Y46.242 E.01357
G1 X167.017 Y45.951 E.01359
G1 X167.272 Y45.701 E.01357
G1 X167.566 Y45.499 E.01356
G1 X167.892 Y45.351 E.01361
G1 X168.238 Y45.262 E.01358
G1 X168.631 Y45.241 E.01496
G1 X168.95 Y45.268 E.01217
G1 X169.294 Y45.364 E.01357
G1 X169.616 Y45.518 E.01357
G1 X169.907 Y45.726 E.01359
G1 X170.157 Y45.981 E.01357
G1 X170.359 Y46.276 E.01359
G1 X170.507 Y46.601 E.01357
G1 X170.596 Y46.947 E.01358
G1 X170.624 Y47.304 E.01361
G1 X170.589 Y47.659 E.01356
G1 X170.494 Y48.004 E.0136
G1 X170.339 Y48.326 E.01358
G1 X170.132 Y48.617 E.01357
G1 X169.877 Y48.867 E.01357
G1 X169.605 Y49.054 E.01255
G1 X169.257 Y49.217 E.01461
G1 X168.91 Y49.306 E.01362
G1 X168.554 Y49.334 E.01357
G1 X168.199 Y49.299 E.01356
G1 X167.854 Y49.203 E.01361
G1 X167.512 Y49.035 E.01448
G1 X167.241 Y48.841 E.01267
G1 X166.991 Y48.586 E.01357
G1 X166.789 Y48.292 E.01356
G1 X166.641 Y47.966 E.01361
G1 X166.594 Y47.784 E.00714
M204 P2000
G1 X166.473 Y47.701 F24000
G1 E-2.5 F2700
G1 Z.4 F720
G1 X171.037 Y36.847 F24000
G1 Z.2 F720
G1 E2.5 F1500
M204 P500
;TYPE:Perimeter
G1 F2400
G1 X171.052 Y36.908 E.00239
G1 X171.079 Y37.344 E.0166
G1 X171.031 Y37.778 E.0166
G1 X170.908 Y38.197 E.0166
G1 X170.714 Y38.588 E.01659
G1 X170.455 Y38.94 E.01661
G1 X170.139 Y39.241 E.01659
G1 X169.775 Y39.483 E.01661
G1 X169.375 Y39.659 E.01661
G1 X168.91 Y39.765 E.01813
G1 X168.49 Y39.787 E.01598
G1 X168.08 Y39.741 E.01568
G1 X167.661 Y39.618 E.0166
G1 X167.27 Y39.424 E.01659
G1 X167.009 Y39.241 E.01212
G1 X166.63 Y38.867 E.02024
G1 X166.375 Y38.485 E.01746
G1 X166.199 Y38.085 E.01661
G1 X166.096 Y37.66 E.01662
G1 X166.069 Y37.224 E.0166
G1 X166.117 Y36.79 E.0166
G1 X166.24 Y36.371 E.0166
G1 X166.434 Y35.979 E.01662
G1 X166.693 Y35.628 E.01658
G1 X167.01 Y35.326 E.01664
G1 X167.373 Y35.084 E.01658
G1 X167.938 Y34.865 E.02303
G1 X168.49 Y34.781 E.02122
G1 X169.03 Y34.818 E.02057
G1 X169.487 Y34.95 E.01808
G1 X169.879 Y35.144 E.01662
G1 X170.23 Y35.403 E.01658
G1 X170.532 Y35.719 E.01661
G1 X170.774 Y36.083 E.01661
G1 X170.949 Y36.483 E.01659
G1 X171.023 Y36.788 E.01193
M204 P2000
G1 X170.583 Y36.894 F24000
M204 P500
;TYPE:External perimeter
G1 F2400
G1 X170.596 Y36.948 E.00211
G1 X170.624 Y37.304 E.01357
G1 X170.589 Y37.659 E.01356
G1 X170.494 Y38.004 E.0136
G1 X170.339 Y38.326 E.01358
G1 X170.132 Y38.617 E.01357
G1 X169.877 Y38.867 E.01357
G1 X169.582 Y39.069 E.01359
G1 X169.257 Y39.217 E.01357
G1 X168.87 Y39.31 E.01513
G1 X168.53 Y39.332 E.01295
G1 X168.199 Y39.299 E.01264
G1 X167.854 Y39.203 E.01361
G1 X167.532 Y39.049 E.01357
G1 X167.272 Y38.867 E.01206
G1 X166.991 Y38.586 E.0151
G1 X166.789 Y38.292 E.01356
G1 X166.641 Y37.966 E.01361
G1 X166.552 Y37.62 E.01358
G1 X166.524 Y37.264 E.01357
G1 X166.559 Y36.908 E.0136
G1 X166.655 Y36.564 E.01357
G1 X166.809 Y36.242 E.01357
G1 X167.017 Y35.951 E.01359
G1 X167.272 Y35.701 E.01357
G1 X167.566 Y35.499 E.01356
G1 X168.057 Y35.306 E.02005
G1 X168.567 Y35.236 E.01956
G1 X168.95 Y35.268 E.01461
G1 X169.294 Y35.364 E.01357
G1 X169.616 Y35.518 E.01357
G1 X169.907 Y35.726 E.01359
G1 X170.267 Y36.137 E.02077
G1 X170.507 Y36.601 E.01985
G1 X170.568 Y36.836 E.00923
M204 P2000
G1 X170.636 Y36.906 F24000
G1 E-2.5 F2700
G1 Z.4 F720
G1 X146.96 Y112.752 F24000
G1 Z.2 F720
G1 E2.5 F1500
M204 P500
;TYPE:Perimeter
G1 F2400
G1 X146.957 Y112.662 E.00342
G1 X146.815 Y112.395 E.01149
G1 X146.593 Y112.226 E.0106
G1 X146.296 Y112.158 E.01158
G1 X142.857 Y112.158 E.1307
G1 X142.294 Y112.17 E.0214
;WIDTH:0.47488
G1 X141.748 Y112.18 E.01961
;WIDTH:0.499999
G1 X140.958 Y112.158 E.03004
G1 X135.357 Y112.158 E.21287
G1 X134.794 Y112.17 E.0214
;WIDTH:0.47488
G1 X134.248 Y112.18 E.01961
;WIDTH:0.490654
G1 X133.853 Y112.162 E.01472
;WIDTH:0.525303
G1 X133.458 Y112.145 E.01586
;WIDTH:0.558886
G1 X133.255 Y112.128 E.00874
;WIDTH:0.592469
G1 X133.052 Y112.111 E.00931
;WIDTH:0.626051
G1 X132.849 Y112.095 E.00987
G1 X132.518 Y111.784 E.02202
;WIDTH:0.596939
G1 X132.273 Y111.56 E.01529
;WIDTH:0.569409
G1 X131.916 Y111.202 E.02213
G1 X131.911 Y110.094 E.04851
G1 X132.093 Y110.499 E.01944
G1 X132.338 Y110.868 E.01939
G1 X132.644 Y111.189 E.01941
;WIDTH:0.596939
G1 X132.869 Y111.364 E.01313
;WIDTH:0.626051
G1 X133.094 Y111.539 E.01382
G1 X133.247 Y111.591 E.00784
;WIDTH:0.590368
G1 X133.4 Y111.642 E.00734
;WIDTH:0.554684
G1 X133.674 Y111.694 E.01187
;WIDTH:0.51228
G1 X133.949 Y111.746 E.01092
;WIDTH:0.469876
G1 X134.699 Y111.746 E.02663
;WIDTH:0.499999
G1 X135.125 Y111.659 E.01652
G1 X135.525 Y111.483 E.01661
G1 X135.889 Y111.241 E.01661
G1 X136.205 Y110.94 E.01659
G1 X136.464 Y110.588 E.01661
G1 X136.658 Y110.197 E.01659
G1 X136.781 Y109.778 E.0166
G1 X136.829 Y109.344 E.0166
G1 X136.802 Y108.908 E.0166
G1 X136.699 Y108.483 E.01662
G1 X136.524 Y108.083 E.01659
G1 X136.282 Y107.719 E.01661
G1 X135.98 Y107.403 E.01661
G1 X135.629 Y107.144 E.01658
G1 X135.237 Y106.95 E.01662
G1 X134.818 Y106.827 E.0166
G1 X134.351 Y106.78 E.01784
G1 X133.948 Y106.806 E.01535
G1 X133.523 Y106.909 E.01662
G1 X133.123 Y107.084 E.01659
G1 X132.76 Y107.326 E.01658
G1 X132.443 Y107.628 E.01664
G1 X132.184 Y107.979 E.01658
G1 X131.99 Y108.371 E.01662
G1 X131.879 Y108.793 E.01658
G1 X131.874 Y93.776 E.57074
;WIDTH:0.498654
G1 X131.95 Y94.084 E.01202
;WIDTH:0.499999
G1 X132.125 Y94.485 E.01663
G1 X132.367 Y94.848 E.01658
G1 X132.668 Y95.165 E.01661
G1 X133.02 Y95.424 E.01661
G1 X133.411 Y95.618 E.01659
G1 X133.83 Y95.741 E.0166
G1 X134.264 Y95.789 E.0166
G1 X134.7 Y95.761 E.0166
G1 X135.125 Y95.659 E.01661
G1 X135.457 Y95.515 E.01375
G1 X135.889 Y95.241 E.01944
G1 X136.205 Y94.94 E.01659
G1 X136.464 Y94.588 E.01661
G1 X136.658 Y94.197 E.01659
G1 X136.781 Y93.778 E.0166
G1 X136.829 Y93.344 E.0166
G1 X136.802 Y92.908 E.0166
G1 X136.699 Y92.483 E.01662
G1 X136.524 Y92.083 E.01659
G1 X136.282 Y91.719 E.01661
G1 X135.98 Y91.403 E.01661
G1 X135.629 Y91.144 E.01658
G1 X135.237 Y90.95 E.01662
G1 X134.69 Y90.821 E.02136
;WIDTH:0.469874
G1 X133.949 Y90.821 E.02631
;WIDTH:0.499999
G1 X133.523 Y90.909 E.01653
G1 X133.123 Y91.084 E.01659
G1 X132.76 Y91.326 E.01658
